icons/svg/keyboard-shift.svg

<svg width="24" height="24" viewBox="0 0 24 24" fill="none" xmlns="http://www.w3.org/2000/svg">
<path d="M3.50322 11.9125L10.1044 3.66107C11.0762 2.44631 12.9238 2.44631 13.8956 3.66106L20.4967 11.9125C21.326 12.9491 20.588 14.4847 19.2605 14.4847H15.1663V18.2103C15.1663 19.2743 15.1663 19.8063 14.9592 20.2127C14.7771 20.5702 14.4864 20.8608 14.129 21.0429C13.7226 21.25 13.1906 21.25 12.1266 21.25H11.8733C10.8093 21.25 10.2773 21.25 9.87089 21.0429C9.51342 20.8608 9.22278 20.5702 9.04064 20.2127C8.83358 19.8063 8.83358 19.2743 8.83358 18.2103V14.4847H4.73947C3.41197 14.4847 2.67393 12.9491 3.50322 11.9125Z" stroke="currentColor" stroke-width="1.5" stroke-linecap="round" stroke-linejoin="round"/>
</svg>

<svg xmlns="http://www.w3.org/2000/svg" width="24" height="24" fill="none" viewBox="0 0 24 24"><path stroke="currentColor" stroke-linecap="round" stroke-linejoin="round" stroke-width="1.5" d="m3.503 11.913 6.601-8.252a2.428 2.428 0 0 1 3.792 0l6.6 8.251c.83 1.037.092 2.573-1.235 2.573h-4.095v3.725c0 1.064 0 1.596-.207 2.003a1.9 1.9 0 0 1-.83.83c-.406.207-.938.207-2.002.207h-.254c-1.064 0-1.596 0-2.002-.207a1.9 1.9 0 0 1-.83-.83c-.207-.407-.207-.939-.207-2.003v-3.725H4.739c-1.327 0-2.065-1.536-1.236-2.572"/></svg>
